images/class_icons/tinkerer.svg

<svg height="400" viewBox="0 0 400 400" width="400" xmlns="http://www.w3.org/2000/svg"><path d="m226.291 1.14c-3.5.733-4.156 1.637-9.653 13.3-2.019 4.285-5.687 12.102-6.079 12.955-.187.409-.611 1.32-.943 2.025-.331.705-.817 1.768-1.079 2.361-.262.594-.772 1.709-1.133 2.478-.361.77-.656 1.415-.656 1.436 0 .02-.517 1.111-1.147 2.425-.631 1.314-1.148 2.408-1.148 2.431 0 .024-.444.975-.988 2.114-.543 1.14-1.439 3.034-1.99 4.21-.552 1.176-1.094 2.186-1.205 2.245-.202.106-1.067.172-8.974.682-6.249.402-9.8.787-14.98 1.624-4.225.682-5.914.929-6.379.933-.424.003-.583-.187-4.038-4.822-20.383-27.341-26.088-34.912-26.692-35.418-1.453-1.219-4.86-1.815-7.43-1.299-1.045.21-6.22 2.857-18.956 9.694-1.967 1.056-4.214 2.256-4.994 2.667-.779.411-2.328 1.246-3.441 1.857-1.113.61-2.51 1.369-3.104 1.686-.594.318-1.717.925-2.497 1.349-.779.425-1.842 1.001-2.361 1.281-2.077 1.116-2.77 1.494-4.456 2.427-.967.535-2.242 1.234-2.834 1.552-.593.319-2.322 1.279-3.844 2.133-1.521.854-2.918 1.632-3.104 1.729-4.263 2.216-6.296 6.13-5.183 9.977.914 3.158 5.07 14.918 9.798 27.727.37 1.002 1.088 2.975 1.596 4.386.508 1.41 1.264 3.505 1.681 4.656 1.563 4.316 2.783 7.806 3.03 8.67l.255.892-.3.407c-.277.375-1.199 1.415-3.252 3.668-5.076 5.57-8.895 10.318-13.021 16.187-2.225 3.165-2.597 3.644-2.831 3.644-.114 0-8.679-1.216-19.033-2.701-10.354-1.486-19.525-2.794-20.378-2.906-.854-.113-2.463-.325-3.576-.472-8.243-1.09-8.923-.99-11.606 1.693-1.939 1.938-2.335 2.972-6.745 17.611-.347 1.151-.775 2.548-.951 3.104-.425 1.343-4.212 13.955-5.573 18.556-.592 2.004-1.991 6.68-3.108 10.392l-2.03 6.747.068 2.294c.169 5.698.555 6.104 10.107 10.619.89.421 2.378 1.128 3.306 1.571 2.179 1.041 9.313 4.415 10.189 4.82.371.171 4.106 1.918 8.299 3.881 4.194 1.963 8.02 3.753 8.502 3.978.483.224 1.789.843 2.902 1.374s2.672 1.275 3.464 1.652l1.44.686.08.757c.044.416.171 2.457.282 4.536.496 9.26.957 13.702 2.163 20.806.254 1.498.498 3.137.543 3.644l.08.921-1.057.799c-3.243 2.451-18.917 14.211-22.313 16.739-17.029 12.681-16.848 12.534-17.692 14.302-.785 1.645-.915 5.115-.26 6.959.467 1.313 3.504 7.139 9.179 17.611.684 1.262 1.49 2.75 1.79 3.306.301.557.744 1.377.984 1.822 6.768 12.532 13.635 24.981 14.878 26.972 1.841 2.948 4.219 4.405 7.194 4.405 1.955 0 3.618-.552 24.076-7.989 1.633-.593 3.121-1.127 3.307-1.185.185-.059 4.952-1.791 10.593-3.85 5.641-2.058 10.325-3.75 10.409-3.76.163-.019.423.21 3.424 3.017 5.849 5.472 10.618 9.302 18.746 15.055 1.993 1.411 2.032-.56-.319 15.986-5.654 39.794-5.355 36.31-3.343 39.024 1.979 2.67 2.227 2.772 18.992 7.867 3.34 1.015 6.528 1.989 7.085 2.163 2.67.838 21.725 6.531 25.371 7.579 8.371 2.408 10.1 2.492 13.428.65 1.723-.954 2.32-1.957 6.378-10.725.67-1.447 1.475-3.178 1.789-3.846s.798-1.7 1.077-2.294c.278-.594.748-1.596 1.045-2.227.296-.631 1.875-4.001 3.509-7.49 1.633-3.488 3.227-6.889 3.542-7.557.551-1.166.981-2.087 1.86-3.981.224-.483 1.117-2.396 1.983-4.251.867-1.856 1.699-3.658 1.849-4.005.379-.881-.286-.783 8.074-1.187 5.88-.283 13.549-1.118 18.219-1.982 2.969-.55 4.369-.698 4.751-.502.22.113 2.495 3.032 5.744 7.372 24.995 33.392 24.362 32.571 25.605 33.249 1.361.743 2.141.889 4.699.878l2.271-.01 2.115-1.102c3.021-1.574 9.557-5.031 11.967-6.331.52-.28 1.856-.992 2.969-1.583 2.018-1.071 4.38-2.334 11.674-6.245 2.115-1.134 4.696-2.514 5.735-3.067 1.039-.552 1.95-1.05 2.024-1.105.075-.055.925-.513 1.89-1.016.965-.504 2.058-1.081 2.429-1.282s1.95-1.053 3.509-1.893c10.213-5.506 11.736-7.864 9.497-14.71-1.359-4.159-6.639-18.816-15.448-42.888-.636-1.738-.794-1.425 2.449-4.885.452-.483 1.151-1.241 1.554-1.685s1.046-1.143 1.429-1.552c3.1-3.318 7.47-8.921 12.132-15.553.996-1.418 1.266-1.718 1.545-1.72.375-.001 2.821.292 4.993.6 2.202.311 13.39 1.926 16.397 2.367 7.56 1.106 24.022 3.394 26.253 3.648 2.95.336 4.291-.003 6.238-1.576 2.403-1.942 2.863-3.153 9.076-23.868.245-.817.941-3.124 1.547-5.128s2.226-7.379 3.601-11.944c1.374-4.564 3.047-10.121 3.718-12.348l1.22-4.048-.095-2.352c-.106-2.607-.225-3.091-1.161-4.714-1.118-1.939-1.437-2.115-17.874-9.869-3.61-1.703-5.912-2.784-6.815-3.2-.557-.257-2.287-1.068-3.846-1.803s-6.417-3.003-10.796-5.041l-7.962-3.705-.091-2.607c-.301-8.629-1.079-16.893-2.158-22.917-.153-.854-.388-2.281-.522-3.172l-.243-1.619.292-.32c.725-.794 7.779-6.132 28.565-21.618 1.967-1.466 5.337-3.978 7.49-5.583l3.914-2.917.776-1.632c.876-1.842.892-1.971.644-5.176-.122-1.58-.143-1.654-.837-3.037-1.049-2.09-3.254-6.284-5.711-10.864-.757-1.41-1.73-3.232-2.162-4.049-.432-.816-1.709-3.185-2.837-5.263-1.129-2.078-2.903-5.357-3.943-7.287-3.381-6.274-3.68-6.823-6.344-11.674-6.428-11.7-7.581-13.15-10.948-13.767-2.714-.497-2.753-.484-32.674 10.464-3.377 1.236-6.322 2.31-6.545 2.387-.222.077-2.135.764-4.251 1.527-5.714 2.061-6.535 2.305-6.913 2.056-.169-.11-1.372-1.196-2.674-2.412-6.013-5.619-13.698-11.825-19.039-15.376-.919-.612-1.717-1.153-1.775-1.203-.057-.05.324-3.063.846-6.695 1.739-12.086 4.849-33.95 5.345-37.574.339-2.48.495-4.138.508-5.409l.018-1.833-.513-1.001c-1.781-3.476-2.748-3.973-14.939-7.68-2.709-.823-5.806-1.765-6.883-2.093-7.197-2.191-10.54-3.2-15.182-4.585-2.895-.863-6.144-1.837-7.22-2.163-4.582-1.39-10.589-3.095-13.09-3.715-2.039-.506-4.385-.643-5.828-.341m-15.157 73.276c22.664 1.704 48.032 11.467 65.587 25.243 16.242 12.747 27.964 26.973 36.753 44.606 21.977 44.086 16.183 96.927-14.845 135.388-3.053 3.785-4.197 5.029-9.276 10.091-7.151 7.125-14.004 12.665-21.067 17.03-3.204 1.98-3.982 2.44-6.356 3.756-63.201 35.038-142.327 10.792-174.419-53.445-1.209-2.421-1.766-3.599-3.093-6.545-6.744-14.968-11.187-36.734-10.537-51.62.038-.853.103-2.584.145-3.846 1.462-43.451 26.803-84.247 65.512-105.467 15.279-8.376 30.221-12.996 48.856-15.106 1.299-.147 2.574-.295 2.834-.327 1.235-.155 17.202.039 19.906.242m-16.767 19.248c-63.129 3.886-109.149 60.653-99.552 122.8 6.059 39.237 33.534 72.157 70.792 84.822 11.896 4.043 21.552 5.623 34.528 5.65 54.246.113 99.442-39.826 106.198-93.846.665-5.317.758-19.249.161-24.117-3.411-27.812-15.347-50.627-36.319-69.422-15.342-13.751-36.112-22.763-58.569-25.412-3.38-.399-13.81-.686-17.239-.475m12.043 35.625c33.066 2.419 60.925 29.396 64.777 62.724 5.999 51.896-44.239 92.564-93.657 75.818-11.263-3.817-19.224-8.858-28.266-17.899-18.193-18.193-24.935-46.343-16.993-70.953 9.073-28.109 32.974-47.112 62.736-49.881 1.076-.1 9.314.038 11.403.191" fill-rule="evenodd"/></svg>

<svg id="svg" xmlns="http://www.w3.org/2000/svg" xmlns:xlink="http://www.w3.org/1999/xlink" width="400" height="400" viewBox="0, 0, 400,400"><g id="svgg"><path id="path0" d="M226.291 1.140 C 222.791 1.873,222.135 2.777,216.638 14.440 C 214.619 18.725,210.951 26.542,210.559 27.395 C 210.372 27.804,209.948 28.715,209.616 29.420 C 209.285 30.125,208.799 31.188,208.537 31.781 C 208.275 32.375,207.765 33.490,207.404 34.259 C 207.043 35.029,206.748 35.674,206.748 35.695 C 206.748 35.715,206.231 36.806,205.601 38.120 C 204.970 39.434,204.453 40.528,204.453 40.551 C 204.453 40.575,204.009 41.526,203.465 42.665 C 202.922 43.805,202.026 45.699,201.475 46.875 C 200.923 48.051,200.381 49.061,200.270 49.120 C 200.068 49.226,199.203 49.292,191.296 49.802 C 185.047 50.204,181.496 50.589,176.316 51.426 C 172.091 52.108,170.402 52.355,169.937 52.359 C 169.513 52.362,169.354 52.172,165.899 47.537 C 145.516 20.196,139.811 12.625,139.207 12.119 C 137.754 10.900,134.347 10.304,131.777 10.820 C 130.732 11.030,125.557 13.677,112.821 20.514 C 110.854 21.570,108.607 22.770,107.827 23.181 C 107.048 23.592,105.499 24.427,104.386 25.038 C 103.273 25.648,101.876 26.407,101.282 26.724 C 100.688 27.042,99.565 27.649,98.785 28.073 C 98.006 28.498,96.943 29.074,96.424 29.354 C 94.347 30.470,93.654 30.848,91.968 31.781 C 91.001 32.316,89.726 33.015,89.134 33.333 C 88.541 33.652,86.812 34.612,85.290 35.466 C 83.769 36.320,82.372 37.098,82.186 37.195 C 77.923 39.411,75.890 43.325,77.003 47.172 C 77.917 50.330,82.073 62.090,86.801 74.899 C 87.171 75.901,87.889 77.874,88.397 79.285 C 88.905 80.695,89.661 82.790,90.078 83.941 C 91.641 88.257,92.861 91.747,93.108 92.611 L 93.363 93.503 93.063 93.910 C 92.786 94.285,91.864 95.325,89.811 97.578 C 84.735 103.148,80.916 107.896,76.790 113.765 C 74.565 116.930,74.193 117.409,73.959 117.409 C 73.845 117.409,65.280 116.193,54.926 114.708 C 44.572 113.222,35.401 111.914,34.548 111.802 C 33.694 111.689,32.085 111.477,30.972 111.330 C 22.729 110.240,22.049 110.340,19.366 113.023 C 17.427 114.961,17.031 115.995,12.621 130.634 C 12.274 131.785,11.846 133.182,11.670 133.738 C 11.245 135.081,7.458 147.693,6.097 152.294 C 5.505 154.298,4.106 158.974,2.989 162.686 L 0.959 169.433 1.027 171.727 C 1.196 177.425,1.582 177.831,11.134 182.346 C 12.024 182.767,13.512 183.474,14.440 183.917 C 16.619 184.958,23.753 188.332,24.629 188.737 C 25.000 188.908,28.735 190.655,32.928 192.618 C 37.122 194.581,40.948 196.371,41.430 196.596 C 41.913 196.820,43.219 197.439,44.332 197.970 C 45.445 198.501,47.004 199.245,47.796 199.622 L 49.236 200.308 49.316 201.065 C 49.360 201.481,49.487 203.522,49.598 205.601 C 50.094 214.861,50.555 219.303,51.761 226.407 C 52.015 227.905,52.259 229.544,52.304 230.051 L 52.384 230.972 51.327 231.771 C 48.084 234.222,32.410 245.982,29.014 248.510 C 11.985 261.191,12.166 261.044,11.322 262.812 C 10.537 264.457,10.407 267.927,11.062 269.771 C 11.529 271.084,14.566 276.910,20.241 287.382 C 20.925 288.644,21.731 290.132,22.031 290.688 C 22.332 291.245,22.775 292.065,23.015 292.510 C 29.783 305.042,36.650 317.491,37.893 319.482 C 39.734 322.430,42.112 323.887,45.087 323.887 C 47.042 323.887,48.705 323.335,69.163 315.898 C 70.796 315.305,72.284 314.771,72.470 314.713 C 72.655 314.654,77.422 312.922,83.063 310.863 C 88.704 308.805,93.388 307.113,93.472 307.103 C 93.635 307.084,93.895 307.313,96.896 310.120 C 102.745 315.592,107.514 319.422,115.642 325.175 C 117.635 326.586,117.674 324.615,115.323 341.161 C 109.669 380.955,109.968 377.471,111.980 380.185 C 113.959 382.855,114.207 382.957,130.972 388.052 C 134.312 389.067,137.500 390.041,138.057 390.215 C 140.727 391.053,159.782 396.746,163.428 397.794 C 171.799 400.202,173.528 400.286,176.856 398.444 C 178.579 397.490,179.176 396.487,183.234 387.719 C 183.904 386.272,184.709 384.541,185.023 383.873 C 185.337 383.205,185.821 382.173,186.100 381.579 C 186.378 380.985,186.848 379.983,187.145 379.352 C 187.441 378.721,189.020 375.351,190.654 371.862 C 192.287 368.374,193.881 364.973,194.196 364.305 C 194.747 363.139,195.177 362.218,196.056 360.324 C 196.280 359.841,197.173 357.928,198.039 356.073 C 198.906 354.217,199.738 352.415,199.888 352.068 C 200.267 351.187,199.602 351.285,207.962 350.881 C 213.842 350.598,221.511 349.763,226.181 348.899 C 229.150 348.349,230.550 348.201,230.932 348.397 C 231.152 348.510,233.427 351.429,236.676 355.769 C 261.671 389.161,261.038 388.340,262.281 389.018 C 263.642 389.761,264.422 389.907,266.980 389.896 L 269.251 389.886 271.366 388.784 C 274.387 387.210,280.923 383.753,283.333 382.453 C 283.853 382.173,285.189 381.461,286.302 380.870 C 288.320 379.799,290.682 378.536,297.976 374.625 C 300.091 373.491,302.672 372.111,303.711 371.558 C 304.750 371.006,305.661 370.508,305.735 370.453 C 305.810 370.398,306.660 369.940,307.625 369.437 C 308.590 368.933,309.683 368.356,310.054 368.155 C 310.425 367.954,312.004 367.102,313.563 366.262 C 323.776 360.756,325.299 358.398,323.060 351.552 C 321.701 347.393,316.421 332.736,307.612 308.664 C 306.976 306.926,306.818 307.239,310.061 303.779 C 310.513 303.296,311.212 302.538,311.615 302.094 C 312.018 301.650,312.661 300.951,313.044 300.542 C 316.144 297.224,320.514 291.621,325.176 284.989 C 326.172 283.571,326.442 283.271,326.721 283.269 C 327.096 283.268,329.542 283.561,331.714 283.869 C 333.916 284.180,345.104 285.795,348.111 286.236 C 355.671 287.342,372.133 289.630,374.364 289.884 C 377.314 290.220,378.655 289.881,380.602 288.308 C 383.005 286.366,383.465 285.155,389.678 264.440 C 389.923 263.623,390.619 261.316,391.225 259.312 C 391.831 257.308,393.451 251.933,394.826 247.368 C 396.200 242.804,397.873 237.247,398.544 235.020 L 399.764 230.972 399.669 228.620 C 399.563 226.013,399.444 225.529,398.508 223.906 C 397.390 221.967,397.071 221.791,380.634 214.037 C 377.024 212.334,374.722 211.253,373.819 210.837 C 373.262 210.580,371.532 209.769,369.973 209.034 C 368.414 208.299,363.556 206.031,359.177 203.993 L 351.215 200.288 351.124 197.681 C 350.823 189.052,350.045 180.788,348.966 174.764 C 348.813 173.910,348.578 172.483,348.444 171.592 L 348.201 169.973 348.493 169.653 C 349.218 168.859,356.272 163.521,377.058 148.035 C 379.025 146.569,382.395 144.057,384.548 142.452 L 388.462 139.535 389.238 137.903 C 390.114 136.061,390.130 135.932,389.882 132.727 C 389.760 131.147,389.739 131.073,389.045 129.690 C 387.996 127.600,385.791 123.406,383.334 118.826 C 382.577 117.416,381.604 115.594,381.172 114.777 C 380.740 113.961,379.463 111.592,378.335 109.514 C 377.206 107.436,375.432 104.157,374.392 102.227 C 371.011 95.953,370.712 95.404,368.048 90.553 C 361.620 78.853,360.467 77.403,357.100 76.786 C 354.386 76.289,354.347 76.302,324.426 87.250 C 321.049 88.486,318.104 89.560,317.881 89.637 C 317.659 89.714,315.746 90.401,313.630 91.164 C 307.916 93.225,307.095 93.469,306.717 93.220 C 306.548 93.110,305.345 92.024,304.043 90.808 C 298.030 85.189,290.345 78.983,285.004 75.432 C 284.085 74.820,283.287 74.279,283.229 74.229 C 283.172 74.179,283.553 71.166,284.075 67.534 C 285.814 55.448,288.924 33.584,289.420 29.960 C 289.759 27.480,289.915 25.822,289.928 24.551 L 289.946 22.718 289.433 21.717 C 287.652 18.241,286.685 17.744,274.494 14.037 C 271.785 13.214,268.688 12.272,267.611 11.944 C 260.414 9.753,257.071 8.744,252.429 7.359 C 249.534 6.496,246.285 5.522,245.209 5.196 C 240.627 3.806,234.620 2.101,232.119 1.481 C 230.080 0.975,227.734 0.838,226.291 1.140 M211.134 74.416 C 233.798 76.120,259.166 85.883,276.721 99.659 C 292.963 112.406,304.685 126.632,313.474 144.265 C 335.451 188.351,329.657 241.192,298.629 279.653 C 295.576 283.438,294.432 284.682,289.353 289.744 C 282.202 296.869,275.349 302.409,268.286 306.774 C 265.082 308.754,264.304 309.214,261.930 310.530 C 198.729 345.568,119.603 321.322,87.511 257.085 C 86.302 254.664,85.745 253.486,84.418 250.540 C 77.674 235.572,73.231 213.806,73.881 198.920 C 73.919 198.067,73.984 196.336,74.026 195.074 C 75.488 151.623,100.829 110.827,139.538 89.607 C 154.817 81.231,169.759 76.611,188.394 74.501 C 189.693 74.354,190.968 74.206,191.228 74.174 C 192.463 74.019,208.430 74.213,211.134 74.416 M194.367 93.664 C 131.238 97.550,85.218 154.317,94.815 216.464 C 100.874 255.701,128.349 288.621,165.607 301.286 C 177.503 305.329,187.159 306.909,200.135 306.936 C 254.381 307.049,299.577 267.110,306.333 213.090 C 306.998 207.773,307.091 193.841,306.494 188.973 C 303.083 161.161,291.147 138.346,270.175 119.551 C 254.833 105.800,234.063 96.788,211.606 94.139 C 208.226 93.740,197.796 93.453,194.367 93.664 M206.410 129.289 C 239.476 131.708,267.335 158.685,271.187 192.013 C 277.186 243.909,226.948 284.577,177.530 267.831 C 166.267 264.014,158.306 258.973,149.264 249.932 C 131.071 231.739,124.329 203.589,132.271 178.979 C 141.344 150.870,165.245 131.867,195.007 129.098 C 196.083 128.998,204.321 129.136,206.410 129.289 " stroke="none" fill="#000000" fill-rule="evenodd"></path></g></svg>
